app/renderer/assets/image/components/lineFollower.svg

<?xml version="1.0" encoding="UTF-8"?>
<svg width="150px" height="150px" viewBox="0 0 150 150" version="1.1" xmlns="http://www.w3.org/2000/svg" xmlns:xlink="http://www.w3.org/1999/xlink">
    <!-- Generator: Sketch 46.1 (44463) - http://www.bohemiancoding.com/sketch -->
    <title>lineFollower</title>
    <desc>Created with Sketch.</desc>
    <defs></defs>
    <g id="Page-1" stroke="none" stroke-width="1" fill="none" fill-rule="evenodd">
        <g id="lineFollower" fill-rule="nonzero">
            <rect id="Rectangle-path" fill="#3D454C" x="25.1438104" y="78.5898462" width="37.6641791" height="26"></rect>
            <polygon id="Shape" fill="#262626" points="66.8050044 76.2821538 62.8079895 104.589846 62.8079895 78.5898462 66.8050044 50.2821538"></polygon>
            <polygon id="Shape" fill="#6F7377" points="62.8079895 78.5898462 25.1438104 78.5898462 32.6766462 50.2821538 66.8050044 50.2821538"></polygon>
            <path d="M61.4244074,61.9744615 C61.4244074,61.9744615 56.8124671,64.436 47.8960492,64.436 C38.9796313,64.436 34.367691,61.9744615 34.367691,61.9744615 L34.367691,45.2052308 C34.367691,45.2052308 34.9826164,33.0513846 47.8960492,33.0513846 C60.809482,33.0513846 61.4244074,45.2052308 61.4244074,45.2052308 L61.4244074,61.9744615 Z" id="Shape" fill="#414144"></path>
            <ellipse id="Oval" fill="#606060" cx="47.8960492" cy="37.2052308" rx="5.84179104" ry="2.46153846"></ellipse>
            <rect id="Rectangle-path" fill="#333333" x="28.987094" y="42.436" width="35.819403" height="20.9230769"></rect>
            <polygon id="Shape" fill="#000000" points="65.267691 40.5898462 64.806497 42.5898462 64.806497 63.5129231 65.267691 61.5129231"></polygon>
            <polygon id="Shape" fill="#565656" points="65.267691 40.5898462 29.7557507 40.5898462 28.987094 42.5898462 64.806497 42.5898462"></polygon>
            <path d="M60.348288,73.6667692 C60.348288,73.6667692 55.2751537,76.436 45.4363477,76.436 C35.5975417,76.436 30.5244074,73.6667692 30.5244074,73.6667692 L30.5244074,55.0513846 C30.5244074,55.0513846 31.1393328,41.5129231 45.4363477,41.5129231 C59.7333626,41.5129231 60.348288,55.0513846 60.348288,55.0513846 L60.348288,73.6667692 Z" id="Shape" fill="#3260C6"></path>
            <ellipse id="Oval" fill="#6B7FF2" cx="45.4363477" cy="46.8975385" rx="5.99552239" ry="2.46153846"></ellipse>
            <rect id="Rectangle-path" fill="#3D454C" x="87.0975417" y="78.5898462" width="37.6641791" height="26"></rect>
            <polygon id="Shape" fill="#262626" points="83.1005268 76.2821538 87.0975417 104.589846 87.0975417 78.5898462 83.1005268 50.2821538"></polygon>
            <polygon id="Shape" fill="#6F7377" points="87.0975417 78.5898462 124.761721 78.5898462 117.228885 50.2821538 83.1005268 50.2821538"></polygon>
            <path d="M88.3273925,61.9744615 C88.3273925,61.9744615 92.9393328,64.436 101.855751,64.436 C110.772169,64.436 115.384109,61.9744615 115.384109,61.9744615 L115.384109,45.2052308 C115.384109,45.2052308 114.769184,33.0513846 101.855751,33.0513846 C88.9423179,33.0513846 88.3273925,45.2052308 88.3273925,45.2052308 L88.3273925,61.9744615 Z" id="Shape" fill="#414144"></path>
            <ellipse id="Oval" fill="#606060" cx="102.009482" cy="37.2052308" rx="5.84179104" ry="2.46153846"></ellipse>
            <rect id="Rectangle-path" fill="#333333" x="84.9453029" y="42.436" width="35.819403" height="20.9230769"></rect>
            <polygon id="Shape" fill="#000000" points="84.6378402 40.5898462 85.0990343 42.5898462 84.9453029 63.5129231 84.6378402 61.5129231"></polygon>
            <polygon id="Shape" fill="#565656" points="84.6378402 40.5898462 120.149781 40.5898462 120.764706 42.5898462 85.0990343 42.5898462"></polygon>
            <path d="M89.5572432,73.6667692 C89.5572432,73.6667692 94.6303776,76.436 104.469184,76.436 C114.307989,76.436 119.381124,73.6667692 119.381124,73.6667692 L119.381124,55.0513846 C119.381124,55.0513846 118.766198,41.5129231 104.469184,41.5129231 C90.1721686,41.5129231 89.5572432,55.0513846 89.5572432,55.0513846 L89.5572432,73.6667692 Z" id="Shape" fill="#3260C6"></path>
            <ellipse id="Oval" fill="#6B7FF2" cx="104.469184" cy="46.8975385" rx="5.99552239" ry="2.46153846"></ellipse>
            <path d="M108.627907,133 L101,133 L101,131.557377 L104.72093,127.770492 C105.27907,127.229508 105.651163,126.868852 105.837209,126.327869 C106.023256,125.967213 106.209302,125.606557 106.209302,125.245902 C106.209302,124.704918 106.023256,124.344262 105.837209,124.163934 C105.651163,123.983607 105.27907,123.803279 104.72093,123.803279 C104.162791,123.803279 103.790698,123.983607 103.604651,124.344262 C103.418605,124.704918 103.232558,125.065574 103.232558,125.606557 L101,125.606557 C101,124.885246 101.186047,124.344262 101.55814,123.803279 C101.930233,123.262295 102.302326,122.901639 102.860465,122.540984 C103.418605,122.180328 104.162791,122 104.906977,122 C106.023256,122 106.953488,122.180328 107.697674,122.721311 C108.255814,123.262295 108.627907,123.983607 108.627907,125.065574 C108.627907,125.606557 108.44186,126.147541 108.255814,126.688525 C107.883721,127.229508 107.511628,127.95082 106.767442,128.672131 L104.162791,131.196721 L109,131.196721 L109,133 L108.627907,133 Z" id="Shape" fill="#5D6069"></path>
            <polygon id="Shape" fill="#5D6069" points="46 133 43.6923077 133 43.6923077 124.704918 41 125.42623 41 123.622951 45.8076923 122 46 122"></polygon>
        </g>
    </g>
</svg>

<svg width="150" height="150" xmlns="http://www.w3.org/2000/svg"><g fill="none"><path fill="#3D454C" d="M25.144 78.59h37.664v26H25.144z"/><path fill="#262626" d="M66.805 76.282l-3.997 28.308v-26l3.997-28.308z"/><path fill="#6F7377" d="M62.808 78.59H25.144l7.533-28.308h34.128z"/><path d="M61.424 61.974s-4.612 2.462-13.528 2.462-13.528-2.462-13.528-2.462V45.205s.615-12.154 13.528-12.154 13.528 12.154 13.528 12.154v16.77z" fill="#414144"/><ellipse fill="#606060" cx="47.896" cy="37.205" rx="5.842" ry="2.462"/><path fill="#333" d="M28.987 42.436h35.819v20.923H28.987z"/><path fill="#000" d="M65.268 40.59l-.462 2v20.923l.462-2z"/><path fill="#565656" d="M65.268 40.59H29.756l-.769 2h35.82z"/><path d="M60.348 73.667s-5.073 2.769-14.912 2.769c-9.838 0-14.912-2.77-14.912-2.77V55.052s.615-13.538 14.912-13.538S60.348 55.05 60.348 55.05v18.616z" fill="#3260C6"/><ellipse fill="#6B7FF2" cx="45.436" cy="46.898" rx="5.996" ry="2.462"/><path fill="#3D454C" d="M87.098 78.59h37.664v26H87.098z"/><path fill="#262626" d="M83.1 76.282l3.998 28.308v-26L83.1 50.282z"/><path fill="#6F7377" d="M87.098 78.59h37.664l-7.533-28.308H83.1z"/><path d="M88.327 61.974s4.612 2.462 13.529 2.462c8.916 0 13.528-2.462 13.528-2.462V45.205s-.615-12.154-13.528-12.154c-12.914 0-13.529 12.154-13.529 12.154v16.77z" fill="#414144"/><ellipse fill="#606060" cx="102.009" cy="37.205" rx="5.842" ry="2.462"/><path fill="#333" d="M84.945 42.436h35.819v20.923H84.945z"/><path fill="#000" d="M84.638 40.59l.461 2-.154 20.923-.307-2z"/><path fill="#565656" d="M84.638 40.59h35.512l.615 2H85.099z"/><path d="M89.557 73.667s5.073 2.769 14.912 2.769 14.912-2.77 14.912-2.77V55.052s-.615-13.538-14.912-13.538S89.557 55.05 89.557 55.05v18.616z" fill="#3260C6"/><ellipse fill="#6B7FF2" cx="104.469" cy="46.898" rx="5.996" ry="2.462"/><path d="M108.628 133H101v-1.443l3.72-3.787c.56-.54.931-.901 1.117-1.442.186-.36.372-.721.372-1.082 0-.541-.186-.902-.372-1.082-.186-.18-.558-.36-1.116-.36s-.93.18-1.116.54c-.186.36-.372.722-.372 1.263H101c0-.722.186-1.263.558-1.804a4.282 4.282 0 0 1 1.302-1.262c.559-.36 1.303-.541 2.047-.541 1.116 0 2.046.18 2.79.721.559.541.93 1.263.93 2.345 0 .54-.185 1.082-.371 1.623-.372.54-.744 1.262-1.489 1.983l-2.604 2.525H109V133h-.372zM46 133h-2.308v-8.295l-2.692.721v-1.803L45.808 122H46z" fill="#5D6069"/></g></svg>
